packages/sights/assets/overlays/PLh198NC.svg

<svg width="500" height="375" viewBox="0 0 500 375" fill="none" xmlns="http://www.w3.org/2000/svg">
<path d="M450.21 95.1602C448.45 112.59 434.85 156.31 434.85 156.31C428.73 167.01 395.25 234.73 395.25 234.73" stroke="white" stroke-miterlimit="10"/>
<path d="M450.239 76.2801L448.179 64.3601L441.299 56.1001L430.059 21.9401L423.179 14.8301C411.029 8.83006 361.499 5.83006 361.499 5.83006C300.049 1.94006 242.999 13.6801 242.999 13.6801L228.899 19.7601C220.649 23.5401 165.379 77.6601 165.379 77.6601C165.379 77.6601 81.3794 103.18 44.1994 147.82L41.3994 172.28C41.3994 172.28 30.3994 192.46 31.3094 209.28C31.3094 209.28 31.9194 222.43 46.8994 269.51L47.5094 287.51C47.5094 287.51 93.2194 328.51 204.199 368.38C204.199 368.38 327.559 368.38 343.609 348.2C343.609 348.2 394.439 185.86 402.469 194.65C402.469 194.65 408.409 195.75 395.469 235.4" stroke="white" stroke-miterlimit="10"/>
<path d="M392.4 208.42C395.62 210.99 396.58 220.74 395.47 234.74C394.38 248.59 391.25 266.61 386.28 285.99C375.73 327.16 360.84 358.91 353.02 356.9L339.51 351" stroke="white" stroke-miterlimit="10"/>
<path d="M426.93 171.41C427.588 171.746 428.316 171.92 429.055 171.92C429.794 171.92 430.522 171.746 431.18 171.41C431.18 171.41 436.93 161.95 442.18 131.23" stroke="white" stroke-miterlimit="10"/>
<path d="M58.1094 250.09L62.2394 273.02L153.149 315.32L150.859 290.45L58.1094 250.09Z" stroke="white" stroke-miterlimit="10"/>
<path d="M216.551 228.15L322.181 216.54L333.801 214.24L358.001 203.69L362.281 203.08L363.651 208.42L350.961 240.23C350.961 240.23 312.141 261.17 246.561 266.52L214.561 234.8L216.551 228.15Z" stroke="white" stroke-miterlimit="10"/>
<path d="M247.999 306.84L274.139 296.29C274.139 296.29 321.369 288.29 327.679 290.9C327.679 290.9 329.509 312.11 323.319 319.68C323.319 319.68 285.719 327.13 270.929 326.9C270.929 326.9 246.579 326.9 247.539 320.14C247.619 319.34 247.999 306.84 247.999 306.84Z" stroke="white" stroke-miterlimit="10"/>
<path d="M247.48 266.52L212 288.38L202.83 290.38C107.87 267.37 44 223 44 223L40.5 192.61L47.64 174.19C47.64 174.19 99.76 206.75 216.55 228.19" stroke="white" stroke-miterlimit="10"/>
<path d="M44.1191 147.13L47.6391 174.19" stroke="white" stroke-miterlimit="10"/>
<path d="M41.37 171.59L40.5 192.61" stroke="white" stroke-miterlimit="10"/>
<path d="M170.25 72.1602C170.25 72.1602 166.34 65.2702 166.91 62.0602C166.91 62.0602 176.66 55.0602 179.18 54.9602C180.348 54.7214 181.562 54.8788 182.631 55.4077C183.7 55.9365 184.561 56.8066 185.08 57.8802" stroke="white" stroke-miterlimit="10"/>
<path d="M401.83 109.18C401.83 109.18 408.13 103.34 413.75 102.99C413.75 102.99 449.18 99.2102 452.27 94.1702L457.89 80.4102C457.89 80.4102 448.95 73.4102 427.89 70.4102L418.84 72.3602L411.84 79.9302L410 84.3102L411.95 92.2202L406.79 95.1602L399.91 101.27C399.91 101.27 399.88 108 401.83 109.18Z" stroke="white" stroke-miterlimit="10"/>
<path d="M227.18 20.7601C227.18 20.7601 352.07 14.3701 397.93 25.3801C397.93 25.3801 386.93 89.2401 387.27 98.8701C387.27 98.8701 383.14 102.54 383.27 102.87C383.4 103.2 181.27 111.81 160.41 79.2501" stroke="white" stroke-miterlimit="10"/>
</svg>

<svg width="500" height="375" fill="none" xmlns="http://www.w3.org/2000/svg"><path d="M450.21 95.16c-1.76 17.43-15.36 61.15-15.36 61.15-6.12 10.7-39.6 78.42-39.6 78.42" stroke="#fff" stroke-miterlimit="10"/><path d="m450.239 76.28-2.06-11.92-6.88-8.26-11.24-34.16-6.88-7.11c-12.15-6-61.68-9-61.68-9-61.45-3.89-118.5 7.85-118.5 7.85l-14.1 6.08c-8.25 3.78-63.52 57.9-63.52 57.9s-84 25.52-121.18 70.16l-2.8 24.46s-11 20.18-10.09 37c0 0 .61 13.15 15.59 60.23l.61 18s45.71 41 156.69 80.87c0 0 123.36 0 139.41-20.18 0 0 50.83-162.34 58.86-153.55 0 0 5.94 1.1-7 40.75" stroke="#fff" stroke-miterlimit="10"/><path d="M392.4 208.42c3.22 2.57 4.18 12.32 3.07 26.32-1.09 13.85-4.22 31.87-9.19 51.25-10.55 41.17-25.44 72.92-33.26 70.91l-13.51-5.9M426.93 171.41a4.67 4.67 0 0 0 4.25 0s5.75-9.46 11-40.18M58.11 250.09l4.13 22.93 90.909 42.3-2.29-24.87-92.75-40.36ZM216.551 228.15l105.63-11.61 11.62-2.3 24.2-10.55 4.28-.61 1.37 5.34-12.69 31.81s-38.82 20.94-104.4 26.29l-32-31.72 1.99-6.65ZM247.999 306.84l26.14-10.55s47.23-8 53.54-5.39c0 0 1.83 21.21-4.36 28.78 0 0-37.6 7.45-52.39 7.22 0 0-24.35 0-23.39-6.76.08-.8.46-13.3.46-13.3Z" stroke="#fff" stroke-miterlimit="10"/><path d="M247.48 266.52 212 288.38l-9.17 2C107.87 267.37 44 223 44 223l-3.5-30.39 7.14-18.42s52.12 32.56 168.91 54M44.12 147.13l3.52 27.06M41.37 171.59l-.87 21.02M170.25 72.16s-3.91-6.89-3.34-10.1c0 0 9.75-7 12.27-7.1a5.36 5.36 0 0 1 5.9 2.92M401.83 109.18s6.3-5.84 11.92-6.19c0 0 35.43-3.78 38.52-8.82l5.62-13.76s-8.94-7-30-10l-9.05 1.95-7 7.57-1.84 4.38 1.95 7.91-5.16 2.94-6.88 6.11s-.03 6.73 1.92 7.91Z" stroke="#fff" stroke-miterlimit="10"/><path d="M227.18 20.76s124.89-6.39 170.75 4.62c0 0-11 63.86-10.66 73.49 0 0-4.13 3.67-4 4 .13.33-202 8.94-222.86-23.62" stroke="#fff" stroke-miterlimit="10"/></svg>
